brandFactory_export/1.Light/Me gusta like_1Light.svg

<?xml version="1.0" encoding="UTF-8"?>
<svg width="24px" height="24px" viewBox="0 0 24 24" version="1.1" xmlns="http://www.w3.org/2000/svg" xmlns:xlink="http://www.w3.org/1999/xlink">
    <title>1.Light/Me gusta like_1Light</title>
    <g id="Symbols" stroke="none" stroke-width="1" fill="none" fill-rule="evenodd">
        <g id="1.Light/Me-gusta-like_1Light" fill="#5CB615" fill-rule="nonzero">
            <path d="M3.08235294,12.9848739 C3.62352941,12.9848739 4.00336134,13.3613445 4.00336134,13.9058824 C4.00336134,14.4504202 3.62689076,14.8268908 3.08235294,14.8268908 C2.54117647,14.8268908 2.16134454,14.4470588 2.16134454,13.9058824 C2.16134454,13.3647059 2.53781513,12.9848739 3.08235294,12.9848739 L3.08235294,12.9848739 Z M22.1176471,12.7226891 C21.9193277,12.5378151 21.9058824,12.2285714 22.0907563,12.0268908 L22.1176471,12 C22.4605042,11.687395 22.6420644,11.1731092 22.6420644,10.5142857 C22.6420644,9.08235294 21.3344538,8.90084034 20.9310924,8.87731092 L16.7529412,8.87731092 L13.4655462,8.77983193 C13.2,8.7697479 12.9882353,8.55462185 12.9915966,8.28907563 C12.9915966,8.28907563 13.0016807,5.34453782 13.0016807,3.1092437 L13.0016807,3.08235294 L13.0084034,2.93445378 C13.0084034,1.57310924 12.4302521,0.978151261 11.1865546,0.978151261 C10.5378151,0.978151261 10.0336134,1.14957983 9.73109244,1.47563025 C9.44537815,1.78151261 9.3210084,2.22857143 9.36470588,2.81008403 L9.38487395,3.05546218 C9.39831933,3.15966387 9.40504202,3.25714286 9.41176471,3.37815126 C9.41512605,3.39831933 9.41512605,3.41848739 9.41848739,3.43865546 C9.4487395,4.84705882 9.46890756,6.65546218 9.33109244,8.13109244 C9.11596639,10.3630252 7.01848739,11.5865546 6.21176471,11.9798319 L6.21176471,12.1277311 C6.21176471,12.1478992 6.21848739,12.1647059 6.21848739,12.1848739 L6.21848739,21.5563025 C6.21848739,21.5764706 6.21512605,21.5932773 6.21176471,21.6134454 L6.21176471,21.7042017 L9.51596639,21.7478992 C9.8789916,21.7478992 10.2621849,21.8554622 10.7394958,21.9932773 L11.0084034,22.0705882 C11.9226891,22.3394958 12.9579832,22.6420168 15.5529412,22.6420168 C20.0739496,22.6420168 20.2554622,22.1546218 20.6151261,21.1798319 C20.6957983,20.6453782 20.6588235,20.2151261 20.4739496,19.8722689 C20.3462185,19.6336134 20.4369748,19.3344538 20.6756303,19.2067227 L20.7159664,19.1865546 C21.3008403,18.9411765 21.9966387,18.4773109 21.9966387,17.6369748 C21.9966387,17.0890756 21.8689076,16.6453782 21.6201681,16.3596639 C21.4420168,16.1546218 21.4655462,15.8487395 21.6705882,15.6705882 C21.6840336,15.6571429 21.7008403,15.6470588 21.7142857,15.6369748 C22.1378151,15.3478992 22.6420644,14.8369748 22.6420644,14.0605042 C22.6453782,13.4957983 22.4705882,13.0453782 22.1176471,12.7226891 L22.1176471,12.7226891 Z M4.72605042,22.0739496 C4.99831933,22.0739496 5.22352941,21.8588235 5.23697479,21.5831933 L5.23697479,12.1579832 C5.22352941,11.8857143 4.99831933,11.6705882 4.72605042,11.6705882 L1.49243697,11.6705882 C1.20672269,11.6705882 0.978151261,11.902521 0.978151261,12.1882353 L0.978151261,21.5596639 C0.978151261,21.8453782 1.21008403,22.0773109 1.49243697,22.0773109 L4.72605042,22.0739496 L4.72605042,22.0739496 Z M23.102521,12.3596639 C23.3815126,12.7394958 23.6235294,13.2941176 23.6235294,14.0638655 C23.6235294,14.8537815 23.2806723,15.5831933 22.6487395,16.1478992 C22.8302521,16.4941176 22.9781513,16.9781513 22.9781513,17.6369748 C22.9781513,18.5747899 22.4672269,19.3579832 21.5327731,19.8756303 C21.6571429,20.312605 21.6638655,20.810084 21.5596639,21.4252101 C20.9310924,23.1428571 20.0739496,23.6168067 15.5563025,23.6168067 C12.8168067,23.6168067 11.6638655,23.2773109 10.7361345,23.005042 L10.4840336,22.9310924 C10.0537815,22.810084 9.74789916,22.7226891 9.51260504,22.7226891 L6.07394958,22.6789916 C5.9697479,22.6756303 5.86890756,22.6554622 5.77478992,22.6151261 C5.49579832,22.8941176 5.11932773,23.0487395 4.72605042,23.0487395 L1.49243697,23.0487395 C0.668907563,23.0487395 0,22.3764706 0,21.5529412 L0,12.1848739 C0,11.3613445 0.668907563,10.6890756 1.49243697,10.6890756 L4.72605042,10.6890756 C5.12941176,10.6890756 5.49243697,10.8504202 5.76134454,11.1092437 C6.38655462,10.8067227 8.19159664,9.78823529 8.35966387,8.03697479 C8.49411765,6.63529412 8.47731092,4.90084034 8.44705882,3.52941176 C8.44369748,3.40504202 8.43361345,3.28067227 8.41680672,3.15630252 L8.39327731,2.87731092 C8.33277311,2.0302521 8.5512605,1.31428571 9.02184874,0.810084034 C9.51596639,0.278991597 10.2655462,0 11.1932773,0 C12.9714286,0 13.9932773,1.03865546 13.9932773,2.84369748 L13.989916,2.95798319 L13.9831933,3.11932773 C13.9831933,4.80672269 13.9764706,6.8907563 13.9764706,7.81512605 L16.7731092,7.89915966 L20.9647059,7.89915966 C22.2084034,7.96638655 23.6268908,8.69243697 23.6268908,10.5142857 C23.6235294,11.3781513 23.3815126,11.9697479 23.102521,12.3596639 Z" id="Me-gusta-like_1Light"></path>
        </g>
    </g>
</svg>

<svg width="24" height="24" viewBox="0 0 24 24" xmlns="http://www.w3.org/2000/svg"><path d="M3.082 12.985c.542 0 .921.376.921.92 0 .545-.376.922-.92.922-.542 0-.922-.38-.922-.921s.377-.921.921-.921zm19.036-.262a.493.493 0 01-.027-.696l.027-.027c.343-.313.524-.827.524-1.486 0-1.432-1.308-1.613-1.71-1.637h-4.18l-3.286-.097a.488.488 0 01-.474-.49s.01-2.945.01-5.18v-.028l.006-.148c0-1.36-.578-1.956-1.821-1.956-.65 0-1.153.172-1.456.498-.286.306-.41.753-.366 1.334l.02.245c.013.105.02.202.027.323l.006.06c.03 1.41.05 3.217-.087 4.693-.215 2.232-2.313 3.456-3.12 3.849v.148c0 .02.007.037.007.057v9.371c0 .02-.003.037-.006.057v.091l3.304.044c.363 0 .746.107 1.223.245l.27.078c.914.268 1.949.571 4.544.571 4.52 0 4.702-.487 5.062-1.462.08-.535.044-.965-.141-1.308a.493.493 0 01.202-.665l.04-.02c.585-.246 1.28-.71 1.28-1.55 0-.548-.127-.992-.376-1.277a.486.486 0 01.05-.69c.014-.013.03-.023.044-.033.424-.29.928-.8.928-1.576.003-.565-.171-1.016-.524-1.338zm-17.392 9.35a.513.513 0 00.511-.49v-9.425a.513.513 0 00-.51-.487H1.491a.515.515 0 00-.514.517v9.372c0 .285.232.517.514.517l3.234-.003zm18.377-9.713c.279.38.52.934.52 1.704 0 .79-.342 1.52-.974 2.084.181.346.33.83.33 1.489 0 .938-.512 1.721-1.446 2.239.124.437.13.934.027 1.55-.629 1.717-1.486 2.19-6.004 2.19-2.74 0-3.892-.339-4.82-.611l-.252-.074c-.43-.12-.736-.208-.971-.208l-3.44-.044a.822.822 0 01-.298-.064 1.48 1.48 0 01-1.049.434H1.492A1.496 1.496 0 010 21.553v-9.368c0-.824.669-1.496 1.492-1.496h3.234c.403 0 .766.161 1.035.42.626-.302 2.43-1.32 2.599-3.072.134-1.402.117-3.136.087-4.508a3.488 3.488 0 00-.03-.373l-.024-.279c-.06-.847.158-1.563.629-2.067C9.516.28 10.266 0 11.193 0c1.778 0 2.8 1.039 2.8 2.844l-.003.114-.007.161c0 1.688-.007 3.772-.007 4.696l2.797.084h4.192c1.243.067 2.662.793 2.662 2.615-.003.864-.245 1.456-.524 1.846z" fill="#5CB615" fill-rule="nonzero"/></svg>
